X:18217
T:Vaqueira
R:Vaqueirada
C:Tradicional
S:Música Tradicional Asturiana, (C) Tello & Tito. Asturies, 2001.
S:http://pagina.de/MusTradAst <telloytito@asturies.org>
O:Somiedu
A:Asturies
B:Musicología Asturiana - La Canción Tradicional, Modesto González Cobas
Z:La Canción Tradicional, M.G.C.
M:6/8
L:1/8
Q:3/8=90
W:1º
W:vaqueiro la tua vaqueira era buena pa señora
W:calzadina de madreñas y el pelo puesto a la moda
W:2º
W:si me quieres bien te quiero si me adoras bien te adoro
W:si me das carta de pago yo también te correspondo
W:3º
W:río arriba río abajo al son del agua que corre
W:ni tengo padre si madre ni hermano que por mi llore
W:4º
W:una planta bien plantada bien plantadita se queda
W:la mujer del buen marido siempre parece soltera
K:Cm
|F>FF FAA|A2 B-B3|c>cc ccc|B2 A-A3|
|B>BB BBB|AB/A/ G-G3|A>AA AAA|GA/G/ F-F3|


